!!!COM: Anon.
!!!OTL: O que tens, o/ Juliana
!!!OTL: Romanceiro Folclorico do Brasil
!!!CNT: Brasil
!!!OCY: Brasil
!!!ODT: <1971///
!!!PSR: Irmaos Vitale
!!!PSP: Sao Paulo, Brasil
!!!PDT: 1950///
!!!PPE: Rossini Tavares de Lima
!!!PPG: page 18
!! Romance: Juliana E D. Jorge
!! Place: Alagoas, Brasil
**kern
*clefG2
*k[]
*M3/4
*MM??
8g
8cc
=
4.cc
8a
8f
8d
=
4e
4c
8g
8cc
=
4.b
8g
8a
8b
=
2cc
8c
8c
=
4f
4a
8dd
8cc
=
4e
4g
8b
8a
=
4d
4f
8e
8d
=
2g
8c
8c
=
4f
4a
8dd
8cc
=
4e
4g
8b
8a
=
4d
4f
8e
8d
=
2c
==
*-
